X: 246
T: Ben de Gittim Bir Geyiğin Avına
C: Aziz Şenses
O: Turkey
F: http://compmusic.upf.edu/node/140
N: muhayyer--turku--nimsofyan--ben_de--adana
N: makam= muhayyer
N: form= turku
N: usul= nimsofyan = 2/4
M: 2/4
L: 1/16
K: C _2/4B ^3/4f  
Q: 1/4=84
%%MIDI tuningsystem comma53
e2ee e2e2  | _1/4e2ed _7/8edc2  | d4 gf_3/4ed  | \
w:  ARANAĞME  |   |   | 
cBcd B2A2  | 
w:   | 
A3B dB2A  | A3A zg=fg  | e2ee e2e2  | _1/4e2ed _7/8edc2  | 
w:   |   |  ARANAĞME  |   | 
d4 gf_3/4ed  | cBcd B2A2  | A3B dB2A  | \
w:   |   |   | 
A3A zg=fg  | 
w:   | 
a2fg a2a2  | a2a2 a2g2  | ac'ba gfeg  | \
w:  *  Ben  de  git tim   |  bir  ge yi ğin   |  a *  *  *  vı  | 
fefg fed2  | 
w:  na  *  a man_ am *  man    | 
a2fg a2a2  | a2a2 a2g2  | ac'ba gfeg  | \
w:  *  Ben  de  git tim   |  bir  ge yi ğin   |  a *  *  *  vı  | 
fefg fed2  | 
w:  na  *  a man_ am *  man    | 
za2g g=ffe  | _1/4e2ed _7/8edc2  | d4 gf_3/4ed  | \
w:  Ge yik  çek *  ti   |  be ni  *  ken *  di   |  da ğı  | 
cBcd B2A2  | 
w:  na  *  a man_ am man   | 
c3B dB2A  | A4 ABcd  | e2de e2e2  | _1/4e2ed _7/8edc2  | 
w:  da *  ğı  |  na   SAZ  |  *  Ge yik  çek ti   |  be ni  *  ken *  di   | 
d4 gf_3/4ed  | cBcd B2A2  | c3B dB2A  | \
w:  da ğı  |  na  *  a man_ am man   |  da *  ğı  | 
A3g fga/b/a/g/  | 
w:  na   SAZ  | 
a2fg a2a2  | a2a2 a2g2  | ac'ba gfeg  | \
w:  *  Töv be ler  töv  |  be si  ge yik   |  a *  *  *  vı  | 
fefg fed2  | 
w:  na  *  a man_ am *  man    | 
a2fg a2a2  | a2a2 a2g2  | ac'ba gfeg  | \
w:  *  Töv be ler  töv  |  be si  ge yik   |  a *  *  *  vı  | 
fefg fed2  | 
w:  na  *  a man_ am *  man    | 
za2g g=ffe  | _1/4e2ed _7/8edc2  | d4 gf_3/4ed  | \
w:  Siz  gi din  *  kar  |  daş lar  *  kal *  dım   |  bu ra  | 
cBcd B2A2  | 
w:  da  *  a man_ am man   | 
c3B dB2A  | A4 ABcd  | e2de e2e2  | _1/4e2ed _7/8edc2  | 
w:  bu *  ra  |  da   SAZ  |  *  Siz  gi din  av  |  cı lar  *  kal *  dım   | 
d4 gf_3/4ed  | cBcd B2A2  | c3B dB2A  | A8  | \
w:  bu ra  |  da  *  a man_ am man   |  bu *  ra  |  da    | 
e2ee e2e2  | 
w:  ARANAĞME  | 
_1/4e2ed _7/8edc2  | d4 gf_3/4ed  | cBcd B2A2  | \
w:   |   |   | 
A3B dB2A  | 
w:   | 
A3A zg=fg  | e2ee e2e2  | _1/4e2ed _7/8edc2  | \
w:   |  ARANAĞME  |   | 
d4 gf_3/4ed  | 
w:   | 
cBcd B2A2  | A3B dB2A  | A3A zg=fg  | a2fg a2a2  | 
w:   |   |   |  *  Ben  de  git tim   | 
a2a2 a2g2  | ac'ba gfeg  | fefg fed2  | \
w:  bir  ge yi ğin   |  a *  *  *  vı  |  na  *  a man_ am *  man    | 
a2fg a2a2  | 
w:  *  Ben  de  git tim   | 
a2a2 a2g2  | ac'ba gfeg  | fefg fed2  | \
w:  bir  ge yi ğin   |  a *  *  *  vı  |  na  *  a man_ am *  man    | 
za2g g=ffe  | 
w:  Ge yik  çek *  ti   | 
_1/4e2ed _7/8edc2  | d4 gf_3/4ed  | cBcd B2A2  | \
w:  be ni  *  ken *  di   |  da ğı  |  na  *  a man_ am man   | 
c3B dB2A  | 
w:  da *  ğı  | 
A4 ABcd  | e2de e2e2  | _1/4e2ed _7/8edc2  | \
w:  na   SAZ  |  *  Ge yik  çek ti   |  be ni  *  ken *  di   | 
d4 gf_3/4ed  | 
w:  da ğı  | 
cBcd B2A2  | c3B dB2A  | A3g fga/b/a/g/  | \
w:  na  *  a man_ am man   |  da *  ğı  |  na   SAZ  | 
a2fg a2a2  | 
w:  *  Töv be ler  töv  | 
a2a2 a2g2  | ac'ba gfeg  | fefg fed2  | \
w:  be si  ge yik   |  a *  *  *  vı  |  na  *  a man_ am *  man    | 
a2fg a2a2  | 
w:  *  Töv be ler  töv  | 
a2a2 a2g2  | ac'ba gfeg  | fefg fed2  | \
w:  be si  ge yik   |  a *  *  *  vı  |  na  *  a man_ am *  man    | 
za2g g=ffe  | 
w:  Siz  gi din  *  kar  | 
_1/4e2ed _7/8edc2  | d4 gf_3/4ed  | cBcd B2A2  | \
w:  daş lar  *  kal *  dım   |  bu ra  |  da  *  a man_ am man   | 
c3B dB2A  | 
w:  bu *  ra  | 
A4 ABcd  | e2de e2e2  | _1/4e2ed _7/8edc2  | \
w:  da   SAZ  |  *  Siz  gi din  av  |  cı lar  *  kal *  dım   | 
d4 gf_3/4ed  | 
w:  bu ra  | 
cBcd B2A2  | c3B dB2A  | A8  | |


